img/logos/stash.svg

<?xml version="1.0" encoding="UTF-8" standalone="no"?>
<svg width="256px" height="253px" viewBox="0 0 256 253" version="1.1" xmlns="http://www.w3.org/2000/svg" xmlns:xlink="http://www.w3.org/1999/xlink" preserveAspectRatio="xMinYMin meet">
	<g fill="#264970">
		<g>
			<path d="M156.487223,127.659327 C156.487223,111.17939 143.133582,97.8204674 126.653645,97.8204674 C110.171948,97.8204674 96.8200664,111.17939 96.8165458,127.659327 C96.8165458,144.132221 110.168427,157.491145 126.653645,157.491145 C143.131821,157.489385 156.487223,144.132221 156.487223,127.659327"></path>
			<path d="M223.534028,200.710772 L208.020497,191.754362 C206.066563,190.624249 203.59158,191.027358 202.091803,192.711966 C182.999581,214.192917 155.644505,226.515022 127.041377,226.520304 C98.4329685,226.520304 71.0778935,214.198198 51.9856707,192.713726 C50.4858944,191.029118 48.0091511,190.626009 46.0552172,191.756122 L30.541686,200.714293 C29.325318,201.414893 28.4821339,202.620699 28.2374521,204.002535 C27.9927704,205.384372 28.3729953,206.806695 29.2760297,207.882238 C53.6368329,236.955367 89.2706026,253.628936 127.043138,253.628936 C164.808632,253.623655 200.440641,236.946566 224.799685,207.878717 C225.702718,206.803174 226.082943,205.382611 225.838262,203.999014 C225.59358,202.617178 224.750396,201.411372 223.534028,200.710772"></path>
			<path d="M142.487551,201.877218 C142.864255,201.877218 143.24272,201.836731 143.617665,201.750476 C178.012182,194.070284 202.976768,162.927042 202.976768,127.698141 C202.976768,119.958098 201.806168,112.311351 199.496654,104.969137 C199.024893,103.47112 197.89654,102.263554 196.43197,101.693217 C194.96916,101.122879 193.323279,101.251381 191.959045,102.034715 L182.706904,107.373708 C180.668476,108.553109 179.679187,110.957679 180.297052,113.228468 C181.585593,117.958396 182.236904,122.825629 182.236904,127.698141 C182.236904,152.696173 165.346818,174.62248 141.162044,181.017653 C138.887735,181.621437 137.303465,183.679228 137.303465,186.03275 L137.303465,196.691372 C137.303465,198.26332 138.019907,199.752534 139.245077,200.736543 C140.174516,201.48115 141.320471,201.877218 142.487551,201.877218"></path>
			<path d="M127.613367,50.2923449 C106.487997,50.2923449 86.1406794,59.2452349 71.7801453,74.8626239 C70.7151632,76.0244225 70.2328408,77.601652 70.4722417,79.1595183 C70.7098824,80.7156242 71.6410815,82.0780971 73.0035543,82.8649515 L82.2363322,88.1969028 C83.0460706,88.6616222 83.9403034,88.8904613 84.827495,88.8904613 C86.1741252,88.8904613 87.5084332,88.3641313 88.5065238,87.3572392 C98.9556695,76.8394418 112.842683,71.0445314 127.613367,71.0445314 C142.384052,71.0445314 156.272825,76.8376814 166.721971,87.3537187 C168.380174,89.0224838 170.955494,89.3675028 172.990402,88.1933821 L182.2267,82.8631911 C183.587413,82.0745764 184.520373,80.7121036 184.758013,79.1559976 C184.995653,77.5981314 184.513331,76.0209018 183.446589,74.8591033 C169.089575,59.2434746 148.738738,50.2923449 127.613367,50.2923449"></path>
			<path d="M32.2663143,158.405326 C28.8442894,148.153334 27.1086328,137.489431 27.1086328,126.712869 C27.1174343,79.2164323 60.8694425,37.815917 107.360748,28.2944498 C109.573446,27.8420525 111.161238,25.8951598 111.161238,23.6384541 L111.161238,5.75907854 C111.161238,4.35611877 110.539851,3.02357104 109.466068,2.12229701 C108.392284,1.21750239 106.973481,0.830236205 105.591645,1.07667832 C44.4194312,11.7405807 0.0123221058,64.568969 0,126.709348 C0,141.7564 2.60876583,156.495399 7.75588547,170.519716 C8.2382079,171.836421 9.27854569,172.873238 10.5987714,173.35028 C11.123341,173.540392 11.6707945,173.635448 12.2164878,173.635448 C13.0420689,173.635448 13.8623691,173.420692 14.5946542,172.998219 L30.1345899,164.024206 C32.0885239,162.895853 32.9809964,160.547612 32.2663143,158.405326"></path>
			<path d="M71.3203485,107.375997 L62.0699676,102.035245 C60.7074949,101.250151 59.0598533,101.123409 57.5970433,101.693746 C56.132473,102.264084 55.0041201,103.473411 54.5323595,104.971427 C52.2228448,112.313641 51.0504845,119.958628 51.0487242,127.69691 C51.0487242,162.931092 76.0133106,194.076095 110.406069,201.752767 C110.781012,201.839021 111.159477,201.879508 111.534421,201.879508 C112.703261,201.879508 113.849217,201.483441 114.778655,200.738833 C116.005585,199.754825 116.720268,198.26561 116.720268,196.691902 L116.720268,186.03504 C116.720268,183.681518 115.135997,181.621966 112.861688,181.019943 C88.6786751,174.62477 71.7885886,152.698463 71.7885886,127.698671 C71.7885886,122.826158 72.4434205,117.957166 73.7302004,113.230758 C74.3498263,110.95645 73.3587769,108.553639 71.3203485,107.375997"></path>
			<path d="M149.9125,1.07466415 C148.532424,0.833502938 147.111861,1.21548822 146.038077,2.12028284 C144.964294,3.02155688 144.344668,4.3541046 144.344668,5.75706436 L144.344668,23.6364399 C144.344668,25.8931456 145.93246,27.838278 148.143397,28.2924356 C194.645265,37.8121425 228.395512,79.2108975 228.395512,126.707335 C228.395512,137.483896 226.659856,148.147798 223.237831,158.403311 C222.523149,160.545597 223.413861,162.895599 225.369555,164.022192 L240.909491,172.994445 C241.640016,173.416917 242.460316,173.631674 243.285898,173.631674 C243.833351,173.631674 244.380805,173.536617 244.905374,173.346505 C246.2256,172.869463 247.264177,171.834407 247.74826,170.517702 C252.89538,156.491624 255.504145,141.752626 255.504145,126.707335 C255.504145,64.5669549 211.097036,11.735046 149.9125,1.07466415"></path>
		</g>
	</g>
</svg>

<svg width="256" height="253" viewBox="0 0 256 253" xmlns="http://www.w3.org/2000/svg" preserveAspectRatio="xMinYMin meet"><g fill="#264970"><path d="M156.487 127.66c0-16.48-13.353-29.84-29.833-29.84-16.482 0-29.834 13.36-29.837 29.84 0 16.472 13.35 29.83 29.837 29.83 16.478 0 29.833-13.358 29.833-29.83M223.534 200.71l-15.514-8.956c-1.953-1.13-4.428-.727-5.928.958-19.092 21.48-46.447 33.803-75.05 33.808-28.61 0-55.964-12.322-75.056-33.806-1.5-1.685-3.977-2.088-5.93-.958l-15.514 8.958c-1.217.7-2.06 1.907-2.305 3.29-.244 1.38.136 2.803 1.04 3.878 24.36 29.073 59.994 45.747 97.766 45.747 37.766-.006 73.398-16.683 97.757-45.75.903-1.077 1.283-2.497 1.038-3.88-.244-1.383-1.088-2.59-2.304-3.29"/><path d="M142.488 201.877c.376 0 .755-.04 1.13-.127 34.394-7.68 59.36-38.823 59.36-74.052 0-7.74-1.172-15.387-3.48-22.73-.473-1.497-1.6-2.704-3.066-3.275-1.463-.57-3.11-.442-4.473.342l-9.253 5.34c-2.04 1.178-3.028 3.583-2.41 5.853 1.29 4.73 1.94 9.598 1.94 14.47 0 24.998-16.89 46.924-41.075 53.32-2.274.603-3.86 2.66-3.86 5.015v10.658c0 1.573.718 3.063 1.943 4.047.93.744 2.075 1.14 3.243 1.14M127.613 50.292c-21.125 0-41.472 8.953-55.833 24.57-1.065 1.162-1.547 2.74-1.308 4.298.238 1.556 1.17 2.918 2.532 3.705l9.232 5.332c.81.465 1.704.693 2.59.693 1.348 0 2.682-.526 3.68-1.533 10.45-10.518 24.337-16.312 39.107-16.312s28.66 5.793 39.11 16.31c1.657 1.667 4.232 2.013 6.267.838l9.237-5.33c1.36-.788 2.293-2.15 2.53-3.707.24-1.558-.244-3.135-1.31-4.297C169.09 59.242 148.74 50.29 127.613 50.29"/><path d="M32.266 158.405c-3.422-10.252-5.157-20.916-5.157-31.692.007-47.497 33.76-88.897 80.25-98.42 2.213-.45 3.8-2.398 3.8-4.655V5.758c0-1.402-.62-2.734-1.694-3.636-1.074-.904-2.493-1.292-3.874-1.045C44.42 11.74.012 64.57 0 126.71c0 15.046 2.61 29.785 7.756 43.81.482 1.316 1.523 2.353 2.843 2.83.523.19 1.07.285 1.616.285.826 0 1.646-.214 2.38-.637l15.54-8.974c1.953-1.128 2.845-3.476 2.13-5.62"/><path d="M71.32 107.376l-9.25-5.34c-1.363-.786-3.01-.913-4.473-.342-1.465.57-2.593 1.78-3.065 3.277-2.31 7.344-3.482 14.99-3.483 22.727 0 35.234 24.963 66.38 59.356 74.056.375.086.753.127 1.128.127 1.17 0 2.315-.397 3.245-1.14 1.226-.985 1.94-2.474 1.94-4.048v-10.657c0-2.353-1.584-4.413-3.858-5.015-24.183-6.395-41.073-28.322-41.073-53.32 0-4.874.653-9.743 1.94-14.47.62-2.274-.37-4.676-2.41-5.854M149.912 1.075c-1.38-.24-2.8.14-3.874 1.045-1.074.902-1.693 2.234-1.693 3.637v17.88c0 2.256 1.587 4.2 3.798 4.655 46.502 9.52 80.253 50.92 80.253 98.415 0 10.777-1.736 21.44-5.158 31.696-.715 2.143.176 4.493 2.132 5.62l15.54 8.97c.73.424 1.55.64 2.376.64.547 0 1.095-.096 1.62-.286 1.32-.478 2.358-1.513 2.842-2.83 5.147-14.025 7.756-28.764 7.756-43.81 0-62.14-44.407-114.972-105.59-125.632"/></g></svg>
